packages/vapor/resources/icons/svg/mapping-extraction-metadata.svg

<svg fill="#b2ac87" height="16" viewBox="0 0 16 16" width="16" xmlns="http://www.w3.org/2000/svg"><rect height="16" rx="3" width="16"/><g fill="none" fill-rule="evenodd"><g fill="#fff"><rect height="2" rx="1" width="2" x="2" y="3"/><rect height="2" rx="1" width="2" x="2" y="9"/><rect height="2" rx="1" width="2" x="9" y="11"/><rect height="2" rx="1" width="2" x="12" y="7"/><rect height="2" rx="1" width="2" x="11" y="3"/><circle cx="7.5" cy="7.5" r="2.5"/></g><g stroke="#fff"><path d="m7.43379422 7.79032258 2.68768328 5.26099702"/><path d="m7.77690272 7.61876833 5.26099708.28592375"/><path d="m7.66253322 7.33284457 4.46041058-3.37390029"/><path d="m7.49097897 7.61876833-4.51759531-3.7170088"/><path d="m7.71971797 7.33284457-4.63196481 2.68768333"/></g><path d="m15.1924601 0c-.4350401.58882284-8.16250307 12.4927604-10.1924601 15.7152956h9.0606573c1.6580643 0 3.002191-1.3357303 3.002191-3.0097431l-.0000002-10.04313222c0-1.10387254-.8476337-2.29950956-1.870388-2.66242028z" fill="#000" opacity=".16"/></g></svg>

<?xml version="1.0" encoding="UTF-8" standalone="no"?>
<svg width="16px" height="16px" fill="#B2AC87" viewBox="0 0 16 16" version="1.1" xmlns="http://www.w3.org/2000/svg" xmlns:xlink="http://www.w3.org/1999/xlink" xmlns:sketch="http://www.bohemiancoding.com/sketch/ns">
    <rect id="path-1" x="0" y="0" width="16" height="16" rx="3"></rect>
    <g stroke="none" stroke-width="1" fill="none" fill-rule="evenodd" sketch:type="MSPage">
        <g sketch:type="MSArtboardGroup" transform="translate(0.000000, -16.000000)">
            <g sketch:type="MSLayerGroup" transform="translate(0.000000, 16.000000)">
                <rect fill="#FFFFFF" sketch:type="MSShapeGroup" mask="url(#mask-2)" x="2" y="3" width="2" height="2" rx="1"></rect>
                <rect fill="#FFFFFF" sketch:type="MSShapeGroup" mask="url(#mask-2)" x="2" y="9" width="2" height="2" rx="1"></rect>
                <rect fill="#FFFFFF" sketch:type="MSShapeGroup" mask="url(#mask-2)" x="9" y="11" width="2" height="2" rx="1"></rect>
                <rect fill="#FFFFFF" sketch:type="MSShapeGroup" mask="url(#mask-2)" x="12" y="7" width="2" height="2" rx="1"></rect>
                <rect fill="#FFFFFF" sketch:type="MSShapeGroup" mask="url(#mask-2)" x="11" y="3" width="2" height="2" rx="1"></rect>
                <circle fill="#FFFFFF" sketch:type="MSShapeGroup" cx="7.5" cy="7.5" r="2.5"></circle>
                <path d="M7.43379422,7.79032258 L10.1214775,13.0513196" stroke="#FFFFFF" sketch:type="MSShapeGroup" ></path>
                <path d="M7.77690272,7.61876833 L13.0378998,7.90469208" stroke="#FFFFFF" sketch:type="MSShapeGroup" ></path>
                <path d="M7.66253322,7.33284457 L12.1229438,3.95894428" stroke="#FFFFFF" sketch:type="MSShapeGroup" ></path>
                <path d="M7.49097897,7.61876833 L2.97338366,3.90175953" stroke="#FFFFFF" sketch:type="MSShapeGroup" ></path>
                <path d="M7.71971797,7.33284457 L3.08775316,10.0205279" stroke="#FFFFFF" sketch:type="MSShapeGroup" ></path>
                <path d="M15.1924601,0 C14.75742,0.588822842 7.02995703,12.4927604 5,15.7152956 L14.0606573,15.7152956 C15.7187216,15.7152956 17.0628483,14.3795653 17.0628483,12.7055525 L17.0628481,2.66242028 C17.0628481,1.55854774 16.2152144,0.362910716 15.1924601,0 L15.1924601,0 Z" opacity="0.160000011" fill="#000000" sketch:type="MSShapeGroup"></path>
            </g>
        </g>
    </g>
</svg>
